!!!COM:	Johannes Ockeghem
!!!CDT:	~1425-1497/02/06
!!!OTL:	Fors seullement contre
!!!AGN:	Chanson
!!!SCT:	Ock3004
!!!SCA:	Ock3004
!!!voices:	3
**kern	**kern	**kern
*staff3	*staff2	*staff1
*Ivox	*Ivox	*Ivox
*I"Contra	*I"Tenor	*I"Canon Royal
*I'C	*I'T	*I'CR
*clefF4	*clefGv2	*clefG2
*k[b-]	*k[b-]	*k[b-]
*M2/1	*M2/1	*M2/1
*met(C|)	*met(C|)	*met(C|)
=1-	=1-	=1-
!	!	!LO:TX:Z=15:t=Form&colon; rondeau
0D	0d	0a
=2	=2	=2
1D	1.d	1b-
1D	.	[1a
.	4c\	.
.	4B-\	.
=3	=3	=3
1.D	1A	2a/]
.	.	2f/
.	1d	2.f/
4C/	.	.
4BB-/	.	4g/
=4	=4	=4
1AA	1.c	4a/
.	.	4b-\
.	.	1cc
1AA	.	.
.	2d\	4b-\
.	.	4a/
=5	=5	=5
1C	1e-i	1g
1D	1d	1f
=6	=6	=6
1E	2c\	1g
.	2B-\	.
1F	1A	1a
=7	=7	=7
1.G	2r	1.b-
.	2d\	.
.	2B-\	.
2F\	[2c\	2a/
=8	=8	=8
2E-i\	2c\]	1b-
2D\	2d\	.
1C	2e-i\	2.cc\
.	[2c\	.
.	.	4b-\
=9	=9	=9
1r	4c\]	4a/
.	4B-\	4g/
.	2G/	1g
1D	1A	.
.	.	2f#i/
=10	=10	=10
1BB-	0G	1g
1GG	.	1r
=11	=11	=11
0AA	1r	1cc
.	1F	1cc
=12	=12	=12
1GG	1G	1b-
1D	2A/	2a/
.	[2B-\	2f/
=13	=13	=13
1E	2B-\]	1g
.	2c\	.
1F	1A	1cc
=14	=14	=14
1G	1G	1b-
1A	2r	2.a/
.	2F/	.
.	.	4f/
=15	=15	=15
1B-	2E/	2g/
.	1D	2f/
1B-	.	[1d
.	[2G/	.
=16	=16	=16
1B-	2G/]	1d]
.	4F#i/	.
.	4E/	.
1A	1F#i	1r
=17	=17	=17
1.G	1G	1.dd
.	1r	.
4F\	.	4cc\
4E\	.	4b-\
=18	=18	=18
[0F	1.c	0a
.	[2d\	.
=19	=19	=19
0F]	2d\]	1a
.	2c\	.
.	1A	1cc
=20	=20	=20
0r	2.G/	2.b-\
.	4F/	4a/
.	2.B-\	4g/
.	.	4f/
.	.	[2b-\
.	4c\	.
=21	=21	=21
1r	2d\	4b-\]
.	.	4a/
.	2B-\	2b-\
1F	2r	2cc\
.	2f\	[2dd\
=22	=22	=22
1G	2d\	2dd\]
.	1e-i	2b-\
1A	.	1cc
.	2c\	.
=23	=23	=23
1.B-	2.B-\	1.dd
.	4c\	.
.	2d\	.
4A\	2e\	4cc\
4G\	.	4b-\
=24	=24	=24
0F	1f	0a
.	1r	.
=25	=25	=25
1F	2.f\	0r
.	4d\	.
1F	2c\	.
.	[2d\	.
=26	=26	=26
0G	4d\]	0r
.	4c\	.
.	2A/	.
.	1B-	.
=27	=27	=27
0A	1A	0f
.	1r	.
=28	=28	=28
1G	1B-	1g
1F	2A/	1a
.	[2d\	.
=29	=29	=29
0E-i	2d\]	2b-\
.	2c\	2.cc\
.	2.c\	.
.	.	4b-\
.	.	4a/
.	4B-\	4g/
=30	=30	=30
[0D	2.d\	2b-\
.	.	1a
.	4e\	.
.	1f	.
.	.	[2dd\
=31	=31	=31
0D_	2r	4dd\]
.	.	4cc\
.	2d\	4b-\
.	.	4a/
.	2.d\	2b-\
.	.	2a/
.	4c\	.
=32	=32	=32
0D]	2B-\	2r
.	2A/	1a
.	2r	.
.	[2d\	2f/
=33	=33	=33
0r	2d\]	2.e/
.	2c\	.
.	.	4d/
.	1d	1f
=34	=34	=34
0r	2e\	2g/
.	2d\	1a
.	2.f\	.
.	.	[2cc\
.	4e\	.
=35	=35	=35
0r	4d\	2cc\]
.	4c\	.
.	2d\	2b-\
.	2c\	1a
.	[2A/	.
=36	=36	=36
0r	2A/]	1dd
.	2G/	.
.	2A/	2cc\
.	2B-\	[2b-\
=37	=37	=37
0r	2c\	4b-\]
.	.	4a/
.	2d\	1a
.	1B-	.
.	.	2g/
=38	=38	=38
!fermata enclosed in brackets	!fermata enclosed in brackets	!fermata enclosed in brackets
0F;	1A;	0a;
.	1r	.
=39	=39	=39
1G	1d	1r
1G	1B-	1g
=40	=40	=40
1F	1c	1a
1D	1d	1f
=41	=41	=41
1E-	2B-\	1g
.	2.c\	.
1E-i	.	1g
.	4B-\	.
.	4A/	.
.	4G/	.
=42	=42	=42
1D	1F	1a
1BB-	2F/	1d
.	[2G/	.
=43	=43	=43
0C	4G/]	1e
.	4F/	.
.	4E/	.
.	4D/	.
.	2G/	1e
.	2A/	.
=44	=44	=44
1.BB-	2.B-\	1d
.	4G/	.
.	2F/	2r
4AA/	2G/	[2dd\
4GG/	.	.
=45	=45	=45
1FF	1A	2dd\]
.	.	2cc\
1r	1G	2b-\
.	.	2g/
=46	=46	=46
0F	2r	1.a
.	1c	.
.	2A/	2f/
=47	=47	=47
1D	2B-\	1f
.	2A/	.
1D	[1d	1r
=48	=48	=48
0BB-	1d]	1f
.	1r	1g
=49	=49	=49
1.AA	1.c	1.a
2BB-/	2B-\	4g/
.	.	4f/
=50	=50	=50
1C	1G	1e
1D	1F	2f/
.	.	[2a/
=51	=51	=51
2C/	1G	4a/]
.	.	4g/
2BB-/	.	1g
1AA	1A	.
.	.	4f#i/
.	.	4e/
=52	=52	=52
1r	1D	1f#i
[1GG	2r	1g
.	2E/	.
=53	=53	=53
1GG]	2D/	2r
.	2.d\	2.b-\
[1BB-	.	.
.	4c\	4a/
.	4B-\	4g/
.	4A/	4f/
=54	=54	=54
2BB-/]	1B-	1g
2C/	.	.
1D	1A	1f
=55	=55	=55
1E-i	1B-	2r
.	.	2g/
[1F	1A	2f/
.	.	[2a/
=56	=56	=56
2F\]	2r	4a/]
.	.	4b-\
2E\	1A	1cc
[1C	.	.
.	4G/	4b-\
.	4F/	4a/
=57	=57	=57
2C/]	2E/	2g/
2D\	2D/	2f/
2E\	2r	1b-
2F\	2d\	.
=58	=58	=58
1.G	2e-i\	2r
.	2.d\	1b-
.	4B-\	.
2F\	2c\	4a/
.	.	4g/
=59	=59	=59
2D\	2d\	2f/
2C/	2G/	2g/
1F	2r	1a
.	2F/	.
=60	=60	=60
2E\	2G/	2g/
1D	2F/	2.a/
.	2B-\	.
.	.	8g/L
.	.	8f/J
2C/	2c\	4.e/
.	.	8d/
=61	=61	=61
[0D	2A/	2.f/
.	2.d\	.
.	.	4g/
.	.	2a/
.	4c\	.
.	4B-\	[2b-\
.	4A/	.
=62	=62	=62
0D]	2.B-\	4b-\]
.	.	4g/
.	.	1g
.	8A/L	.
.	8G/J	.
.	1A	.
.	.	2f#i/
=63	=63	=63
0GGl	0Gl	0gl
==	==	==
*-	*-	*-
!!!RDF**kern: l=long note in original notation
!!!RDF**kern: i=editorial accidental
!!!RDF**kern: V=start of tuplet marker
!!!RDF**kern: Z=end of tuplet marker
!!!ENC:	Chris Gage 06-13-2012
!!!END:	2012/08/15/
!!!EED:	Jesse Rodin
!!!EEV:	2012/08/16/
!!!ONB:	Translated from MusicXML and edited on 2012/08/16/ by Craig Sapp
!!muse2ps: C^@{COM}^i2I150v85,85,150Q16
